assets/images/logo.svg

<svg width="234" height="55" viewBox="0 0 234 55" fill="none" xmlns="http://www.w3.org/2000/svg">
<path opacity="0.9" fill-rule="evenodd" clip-rule="evenodd" d="M156.435 27.8011C156.435 29.9335 156.435 32.0658 156.435 34.1982C156.435 34.5975 156.553 34.816 156.93 34.9065C157.604 35.0504 158.092 35.6506 158.105 36.3531C158.179 37.6943 158.171 39.0506 158.105 40.3918C158.039 40.8395 157.801 41.2419 157.443 41.5094C157.085 41.7769 156.637 41.8872 156.199 41.8159C155.731 41.8066 155.287 41.6025 154.97 41.251C154.653 40.8995 154.491 40.4312 154.522 39.9548C154.522 39.5178 154.522 39.0732 154.522 38.6362C154.522 38.3273 154.418 38.169 154.1 38.169H145.663C145.353 38.169 145.227 38.3197 145.22 38.6287C145.226 39.253 145.193 39.877 145.124 40.4973C144.906 41.2962 144.182 41.8403 143.369 41.8153C142.557 41.7903 141.866 41.2026 141.696 40.3918C141.623 39.0466 141.623 37.6983 141.696 36.3531C141.712 35.6266 142.233 35.015 142.937 34.8989C143.624 34.7558 143.838 34.1454 144.053 33.6331C144.492 32.4458 144.742 31.1941 144.791 29.9259C144.969 27.128 145.124 24.3276 145.257 21.5246C145.232 20.6873 145.7 19.916 146.446 19.5656C146.757 19.4336 147.092 19.3694 147.429 19.3772C149.69 19.3772 151.95 19.3772 154.211 19.3772C154.82 19.3299 155.418 19.5592 155.846 20.0039C156.273 20.4485 156.486 21.063 156.428 21.6829C156.391 23.7173 156.435 25.7592 156.435 27.8011ZM152.799 28.7508C152.799 26.9198 152.799 25.0888 152.799 23.2503C152.799 22.8284 152.659 22.6702 152.238 22.6777C151.255 22.6777 150.272 22.6777 149.282 22.6777C148.92 22.6777 148.765 22.7757 148.75 23.175C148.691 25.0512 148.647 26.9424 148.514 28.811C148.425 30.0844 148.226 31.3578 148.019 32.6161C147.886 33.1616 147.726 33.6997 147.539 34.2286C147.406 34.7183 147.45 34.7711 147.96 34.7711H152.201C152.762 34.7711 152.792 34.7711 152.792 34.1532C152.797 32.3499 152.797 30.5466 152.792 28.7432L152.799 28.7508Z" fill="black"/>
<path opacity="0.9" fill-rule="evenodd" clip-rule="evenodd" d="M94.7521 27.8614C94.3162 28.7279 93.8803 29.602 93.4444 30.4685C93.0085 31.335 92.5874 32.2618 92.122 33.1433C91.869 33.7973 91.3162 34.2822 90.6443 34.4393C89.6519 34.643 88.6626 34.0761 88.3171 33.1057L85.7903 27.9971C85.7408 27.9255 85.6865 27.8575 85.6278 27.7936C85.5917 28.0182 85.5671 28.2446 85.5539 28.4718C85.5539 31.1089 85.5539 33.7461 85.5539 36.3758C85.6207 37.3699 84.9108 38.2427 83.9404 38.3593C82.97 38.476 82.0806 37.7956 81.9189 36.8128C81.9112 36.6723 81.9112 36.5314 81.9189 36.3908C81.9189 31.3275 81.9189 26.2641 81.9189 21.2007C81.8309 20.4964 82.1323 19.8003 82.7021 19.3923C83.2408 19.1015 83.8732 19.0498 84.4505 19.2493C85.0279 19.4489 85.4991 19.8822 85.7534 20.4472C87.1423 23.3029 88.5535 26.151 89.9572 28.9917C90.0324 29.0993 90.1219 29.1957 90.2232 29.278C90.3119 29.1876 90.4301 29.1198 90.4818 29.0067C91.8855 26.1586 93.2868 23.3104 94.6856 20.4622C94.9079 19.8744 95.3729 19.4163 95.9567 19.2101C96.5404 19.0039 97.1836 19.0706 97.7148 19.3923C98.2836 19.7408 98.6164 20.3819 98.5792 21.0575C98.5792 22.8307 98.5792 24.6014 98.5792 26.3695C98.5792 29.71 98.5792 33.0479 98.5792 36.3833C98.6734 37.3034 98.0483 38.1391 97.1533 38.2896C96.6322 38.4185 96.082 38.3031 95.6531 37.975C95.2242 37.6469 94.9615 37.1405 94.9368 36.5943C94.9368 35.4942 94.9368 34.4017 94.9368 33.3016C94.9368 31.6741 94.9368 30.039 94.9368 28.4115C94.9274 28.2196 94.9077 28.0285 94.8777 27.8388L94.7521 27.8614Z" fill="black"/>
<path opacity="0.9" fill-rule="evenodd" clip-rule="evenodd" d="M127.171 27.0728C127.062 27.1544 126.965 27.2507 126.883 27.3591C125.405 29.9712 123.927 32.5858 122.45 35.2029C122.088 35.8509 121.711 36.5139 121.356 37.1544C121.084 37.7157 120.585 38.1277 119.99 38.2827C119.395 38.4376 118.763 38.32 118.261 37.9606C117.953 37.6254 117.715 37.2309 117.559 36.8003C117.523 36.6315 117.523 36.4567 117.559 36.2879C117.559 31.2245 117.559 26.1611 117.559 21.0977C117.515 20.443 117.813 19.8131 118.342 19.44C118.869 19.0589 119.56 19.0067 120.137 19.3044C120.81 19.5975 121.237 20.2839 121.208 21.0299C121.208 22.1074 121.208 23.1924 121.208 24.2774C121.208 26.1762 121.208 28.0448 121.208 29.9662C121.22 30.1582 121.242 30.3494 121.275 30.5388H121.401L122.479 28.6175C124.038 25.8371 125.582 23.0492 127.156 20.2764C127.428 19.7539 127.895 19.3661 128.452 19.2013C129.009 19.0366 129.608 19.1092 130.111 19.4024C130.527 19.6442 130.803 20.0767 130.85 20.5627C130.85 20.8265 130.902 21.0902 130.902 21.3614C130.902 26.2992 130.902 31.2371 130.902 36.1749C130.994 36.904 130.684 37.6255 130.096 38.051C128.929 38.8045 127.378 37.9003 127.348 36.8455C127.348 36.5818 127.304 36.318 127.304 36.0468C127.304 33.2388 127.304 30.4333 127.304 27.6304V27.0879L127.171 27.0728Z" fill="black"/>
<path opacity="0.9" fill-rule="evenodd" clip-rule="evenodd" d="M173.14 28.7273C173.14 29.8274 173.177 30.92 173.14 32.02C173.124 33.8925 172.316 35.6667 170.923 36.8875C170.113 37.5765 169.14 38.0387 168.101 38.2287C166.983 38.4675 165.828 38.4675 164.71 38.2287C162.762 37.8976 161.112 36.5811 160.329 34.7326C159.822 33.5901 159.569 32.3472 159.59 31.0933C159.59 29.3226 159.59 27.5519 159.59 25.7812C159.601 24.3378 160.024 22.9289 160.809 21.7275C161.591 20.5963 162.749 19.7931 164.067 19.467C165.287 19.1259 166.566 19.0616 167.813 19.2787C169.992 19.4848 171.861 20.9508 172.615 23.0461C172.985 24.0915 173.16 25.1978 173.133 26.3087C173.133 27.1224 173.133 27.9387 173.133 28.7575L173.14 28.7273ZM163.277 28.6744C163.277 29.4882 163.277 30.3019 163.277 31.1157C163.288 31.695 163.363 32.2712 163.499 32.8336C163.724 33.9237 164.591 34.756 165.671 34.9208C167.673 35.2749 169.365 34.2879 169.439 32.0123C169.513 29.7368 169.439 27.5743 169.439 25.3516C169.483 24.3391 168.951 23.3915 168.072 22.9178C166.934 22.3506 165.593 22.3986 164.496 23.0459C163.773 23.6133 163.348 24.4892 163.344 25.4194C163.277 26.5119 163.292 28.6744 163.277 28.6744Z" fill="black"/>
<path opacity="0.9" fill-rule="evenodd" clip-rule="evenodd" d="M101.312 28.7379C101.312 27.6604 101.312 26.5754 101.312 25.4979C101.326 24.1205 101.751 22.7801 102.531 21.6552C103.306 20.541 104.441 19.7408 105.737 19.3947C106.927 19.0667 108.171 18.9999 109.387 19.1988C112.099 19.5831 114.064 21.1805 114.559 24.1643C114.931 26.8962 114.978 29.6639 114.699 32.4073C114.624 34.4234 113.564 36.2674 111.877 37.32C110.509 38.1481 108.914 38.4973 107.333 38.3146C106.147 38.2627 104.997 37.8881 104.001 37.2296C102.706 36.4033 101.815 35.0564 101.548 33.5225C101.361 31.9351 101.282 30.3364 101.312 28.7379V28.7379ZM111.167 28.6931C111.167 27.8793 111.167 27.0656 111.167 26.2518C111.145 25.6601 111.066 25.072 110.931 24.4962C110.755 23.6388 110.126 22.9529 109.298 22.718C108.618 22.5396 107.91 22.4987 107.215 22.5974C106.001 22.815 105.088 23.8458 104.998 25.099C104.954 27.4724 104.932 29.8534 104.998 32.2269C105.026 33.5815 106.005 34.7196 107.318 34.9244C108.692 35.1429 110.177 34.834 110.791 33.1989C110.999 32.5639 111.116 31.9015 111.138 31.2323C111.212 30.3884 111.167 29.537 111.167 28.6931V28.6931Z" fill="black"/>
<path opacity="0.9" fill-rule="evenodd" clip-rule="evenodd" d="M217.905 28.7512C217.905 29.8362 217.905 30.9137 217.905 31.9987C217.897 33.9556 217.016 35.8024 215.512 37.0169C214.7 37.6529 213.745 38.0701 212.734 38.23C211.734 38.4123 210.711 38.4123 209.712 38.23C207.695 37.9446 205.964 36.6208 205.131 34.7263C204.622 33.5605 204.37 32.2951 204.392 31.0192C204.392 29.4368 204.392 27.8545 204.392 26.2722C204.355 24.9036 204.644 23.5461 205.235 22.3164C206 20.8015 207.401 19.7251 209.039 19.3929C210.775 18.9315 212.609 19.0342 214.285 19.6868C215.736 20.2652 216.874 21.4504 217.41 22.9418C217.817 24.0929 218 25.3136 217.95 26.5359C217.95 27.2894 217.95 28.0429 217.95 28.7436L217.905 28.7512ZM214.212 28.7533V28.7533C214.212 27.608 214.212 26.4928 214.212 25.3325C214.243 24.3527 213.728 23.4394 212.882 22.9741C212.413 22.7178 211.892 22.576 211.36 22.5596C210.61 22.4852 209.857 22.6797 209.232 23.1097C208.615 23.545 208.229 24.2449 208.183 25.0085C208.117 27.4723 208.183 29.9438 208.183 32.4152C208.191 32.5257 208.213 32.6347 208.25 32.7392C208.455 33.8463 209.301 34.7144 210.385 34.9318C212.328 35.3312 214.079 34.427 214.234 32.0837C214.293 30.9534 214.212 29.8383 214.212 28.7231V28.7533Z" fill="black"/>
<path opacity="0.9" fill-rule="evenodd" clip-rule="evenodd" d="M175.859 28.7285C175.859 26.1566 175.859 23.5872 175.859 21.0204C175.883 20.1852 176.422 19.457 177.203 19.2045C178.065 18.9405 178.986 19.3649 179.361 20.1991C179.476 20.4883 179.531 20.7987 179.523 21.1108C179.523 22.8965 179.523 24.6823 179.523 26.468C179.546 26.644 179.59 26.8163 179.656 26.9804C179.827 26.9045 179.984 26.8001 180.122 26.6715C181.658 24.5818 183.188 22.4871 184.71 20.3874C185.264 19.634 185.884 19.0236 186.926 19.1969C187.825 19.4045 188.434 20.2579 188.352 21.1937C188.277 21.4695 188.146 21.7262 187.968 21.9472C186.431 24.0418 184.894 26.129 183.336 28.201C183.047 28.5853 182.966 28.849 183.291 29.2861C184.769 31.2677 186.246 33.272 187.724 35.3139C187.987 35.6184 188.194 35.9679 188.337 36.3462C188.64 37.4312 187.369 38.6066 186.298 38.3957C185.726 38.2615 185.224 37.9116 184.894 37.4161C183.284 35.226 181.676 33.0359 180.07 30.8458C179.946 30.7236 179.804 30.6219 179.649 30.5444C179.59 30.6943 179.55 30.8513 179.531 31.0115C179.531 32.8425 179.531 34.681 179.531 36.512C179.605 37.437 178.955 38.2592 178.053 38.3806C177.249 38.5585 176.43 38.1459 176.08 37.386C175.942 37.0282 175.867 36.648 175.859 36.2633C175.851 33.709 175.859 31.2225 175.859 28.7285Z" fill="black"/>
<path opacity="0.9" fill-rule="evenodd" clip-rule="evenodd" d="M220.675 28.9624C220.675 26.5211 220.675 24.0723 220.675 21.631C220.597 20.7575 221.08 19.9323 221.872 19.5891C222.212 19.4513 222.576 19.3822 222.943 19.3856C224.524 19.3856 226.112 19.3178 227.686 19.4459C230.021 19.6343 232.023 20.7193 232.858 23.2133C233.597 25.2178 233.341 27.4629 232.171 29.2412C231.37 30.3662 230.192 31.1519 228.861 31.4489C227.597 31.71 226.306 31.8037 225.019 31.7276C224.324 31.7276 224.317 31.7276 224.317 32.4284C224.317 33.8072 224.317 35.1861 224.317 36.565C224.296 37.3341 223.797 38.0042 223.076 38.2302C222.49 38.427 221.847 38.314 221.36 37.9288C220.872 37.5435 220.604 36.9363 220.645 36.3088C220.645 34.1312 220.645 31.9537 220.645 29.7761C220.665 29.5149 220.675 29.2437 220.675 28.9624ZM224.317 25.5256C224.317 26.3243 224.317 27.123 224.317 27.9217C224.317 28.2532 224.45 28.4265 224.782 28.4039C225.793 28.3792 226.801 28.3012 227.804 28.1703C228.269 28.0346 228.682 27.7557 228.986 27.3716C229.568 26.5789 229.731 25.5452 229.422 24.6063C229.28 23.773 228.648 23.1161 227.833 22.9562C226.843 22.7754 225.824 22.7829 224.819 22.7C224.435 22.7 224.302 22.8432 224.309 23.2275C224.324 23.9885 224.317 24.757 224.317 25.5256V25.5256Z" fill="black"/>
<path opacity="0.9" fill-rule="evenodd" clip-rule="evenodd" d="M198.26 29.9999C198.26 32.1624 198.26 34.3249 198.26 36.4874C198.315 37.296 197.816 38.0365 197.056 38.2732C196.502 38.4709 195.889 38.3829 195.411 38.0372C194.932 37.6914 194.648 37.1307 194.647 36.5326C194.647 36.3593 194.647 36.186 194.647 36.0127C194.647 31.8435 194.647 27.6742 194.647 23.5049C194.647 22.6987 194.647 22.6987 193.849 22.6912C193.051 22.6836 192.312 22.6912 191.544 22.6535C191.111 22.6187 190.711 22.4017 190.44 22.0545C190.17 21.7073 190.053 21.261 190.118 20.8225C190.287 20.1436 190.805 19.6123 191.47 19.4361C191.697 19.3976 191.927 19.3775 192.157 19.3758H200.824C201.356 19.3247 201.887 19.4898 202.301 19.8355C202.795 20.1942 203.014 20.8308 202.848 21.4253C202.675 22.1012 202.104 22.5931 201.422 22.6535C200.58 22.7213 199.73 22.6535 198.888 22.6987C198.334 22.6987 198.282 22.7514 198.282 23.3241C198.282 25.5494 198.282 27.7747 198.282 29.9999H198.26Z" fill="black"/>
<path opacity="0.9" fill-rule="evenodd" clip-rule="evenodd" d="M121.357 14.0664C121.667 14.2397 121.985 14.4055 122.288 14.6014C122.738 14.8877 123.167 15.2117 123.632 15.4679C124.11 15.6816 124.667 15.587 125.051 15.2268C125.442 14.963 125.79 14.6315 126.189 14.3603C126.668 14.0042 127.336 14.0865 127.718 14.5486C128.049 14.9647 128.073 15.5527 127.777 15.9953C127.154 17.0874 126.055 17.8078 124.822 17.9318C123.496 18.1678 122.137 17.777 121.128 16.8694C120.647 16.5124 120.336 15.9653 120.271 15.3624C120.224 14.7001 120.708 14.1224 121.357 14.0664V14.0664Z" fill="black"/>
<path fill-rule="evenodd" clip-rule="evenodd" d="M58.4098 27.4959C58.4284 12.4156 46.5057 0.141181 31.7019 0H31.6612H18.8202C15.4858 0.00439676 12.2897 1.35787 9.93499 3.76267C7.58028 6.16747 6.25985 9.4266 6.26417 12.8231V42.1769C6.25985 45.5734 7.58028 48.8325 9.93499 51.2373C12.2897 53.6421 15.4858 54.9956 18.8202 55H31.653C31.653 55 31.653 55 31.6937 55C46.4976 54.8588 58.4202 42.5844 58.4017 27.5041" fill="url(#paint0_linear)"/>
<path fill-rule="evenodd" clip-rule="evenodd" d="M27.9497 42.0372V42.0372C27.2143 42.0273 26.5972 41.4694 26.5003 40.7267L23.9924 22.3961L22.6163 28.7994C22.0728 31.2901 19.9098 33.0665 17.405 33.0793H0.940478C0.421067 33.0793 0 32.6504 0 32.1213C0 31.5922 0.421067 31.1633 0.940478 31.1633H17.4131C19.0376 31.1525 20.4393 29.9999 20.7923 28.3847L22.5348 20.2893C22.7043 19.5394 23.3736 19.0184 24.1285 19.0488C24.8834 19.0792 25.5102 19.6525 25.6209 20.4138L27.9986 37.9564L32.1432 13.5626C32.2602 12.8194 32.8944 12.2758 33.6333 12.2853V12.2853C34.3767 12.2865 35.0056 12.8456 35.1071 13.5958L37.3056 28.4095C37.5455 29.9914 38.8774 31.1618 40.4487 31.1716H67.6941C68.2135 31.1716 68.6346 31.6005 68.6346 32.1296C68.6346 32.6587 68.2135 33.0876 67.6941 33.0876H40.4569C37.9622 33.0689 35.8485 31.2109 35.4654 28.6998L33.6007 16.1422L29.4073 40.7764C29.2876 41.5056 28.6673 42.0392 27.9416 42.0372" fill="#2A3D44"/>
<defs>
<linearGradient id="paint0_linear" x1="58.4098" y1="55" x2="58.4098" y2="0" gradientUnits="userSpaceOnUse">
<stop stop-color="#B3EFE8"/>
<stop offset="1" stop-color="#E8EDCF"/>
</linearGradient>
</defs>
</svg>

<svg width="234" height="55" fill="none" xmlns="http://www.w3.org/2000/svg"><path opacity=".9" fill-rule="evenodd" clip-rule="evenodd" d="M156.435 27.801v6.397c0 .4.118.618.495.709a1.5 1.5 0 011.175 1.446 38.862 38.862 0 010 4.039c-.066.447-.304.85-.662 1.117a1.637 1.637 0 01-1.244.307 1.7 1.7 0 01-1.229-.565 1.765 1.765 0 01-.448-1.296v-1.319c0-.309-.104-.467-.422-.467h-8.437c-.31 0-.436.15-.443.46.006.624-.027 1.248-.096 1.868a1.77 1.77 0 01-1.755 1.318 1.776 1.776 0 01-1.673-1.423 37.267 37.267 0 010-4.039 1.497 1.497 0 011.241-1.454c.687-.143.901-.754 1.116-1.266a12.03 12.03 0 00.738-3.707c.178-2.798.333-5.598.466-8.401a2.09 2.09 0 011.189-1.96c.311-.131.646-.196.983-.188h6.782a2.048 2.048 0 011.635.627c.427.444.64 1.059.582 1.679-.037 2.034.007 4.076.007 6.118zm-3.636.95v-5.5c0-.423-.14-.58-.561-.573h-2.956c-.362 0-.517.098-.532.497-.059 1.876-.103 3.767-.236 5.636-.089 1.273-.288 2.547-.495 3.805a16.713 16.713 0 01-.48 1.613c-.133.49-.089.542.421.542h4.241c.561 0 .591 0 .591-.618.005-1.803.005-3.606 0-5.41l.007.008zm-58.047-.89c-.436.867-.872 1.741-1.308 2.607-.436.867-.857 1.794-1.322 2.675a2.104 2.104 0 01-1.478 1.296 2.04 2.04 0 01-2.327-1.333l-2.527-5.109a1.887 1.887 0 00-.162-.203c-.036.224-.06.45-.074.678v7.904c.067.994-.643 1.867-1.614 1.983-.97.117-1.86-.563-2.021-1.546a3.858 3.858 0 010-.422V21.2a1.93 1.93 0 01.783-1.809 2.178 2.178 0 011.749-.143c.577.2 1.048.633 1.302 1.198 1.39 2.856 2.8 5.704 4.204 8.545.075.107.165.204.266.286.089-.09.207-.158.259-.271 1.403-2.848 2.805-5.697 4.204-8.545a2.118 2.118 0 011.27-1.252 2.062 2.062 0 011.759.182c.569.349.901.99.864 1.666v15.325c.094.92-.53 1.756-1.426 1.907a1.767 1.767 0 01-1.5-.315 1.842 1.842 0 01-.716-1.38v-8.183a5.337 5.337 0 00-.06-.573l-.125.022zm32.419-.788a1.452 1.452 0 00-.288.286 8124.134 8124.134 0 00-4.433 7.844c-.362.648-.739 1.31-1.094 1.951a2.114 2.114 0 01-1.366 1.129 2.07 2.07 0 01-1.729-.322 3.45 3.45 0 01-.702-1.16 1.229 1.229 0 010-.513v-15.19a1.875 1.875 0 01.783-1.658 1.715 1.715 0 011.795-.136c.673.294 1.1.98 1.071 1.726v8.937c.012.191.034.382.067.572h.126l1.078-1.922c1.559-2.78 3.103-5.568 4.677-8.34.272-.523.739-.91 1.296-1.076a2.105 2.105 0 011.659.201c.416.242.692.675.739 1.16 0 .264.052.528.052.8v14.813a2.006 2.006 0 01-.806 1.876c-1.167.753-2.718-.15-2.748-1.206 0-.263-.044-.527-.044-.798v-8.959l-.133-.015zm45.969 1.654c0 1.1.037 2.193 0 3.293a6.546 6.546 0 01-2.217 4.867 6.03 6.03 0 01-2.822 1.342 8.115 8.115 0 01-3.391 0 5.833 5.833 0 01-4.381-3.496 8.62 8.62 0 01-.739-3.64v-5.312a7.518 7.518 0 011.219-4.053 5.601 5.601 0 013.258-2.261 8.496 8.496 0 013.746-.188c2.179.206 4.048 1.672 4.802 3.767a9.116 9.116 0 01.518 3.263v2.448l.007-.03zm-9.863-.053v2.442c.011.579.086 1.155.222 1.718a2.637 2.637 0 002.172 2.087c2.002.354 3.694-.633 3.768-2.909.074-2.275 0-4.438 0-6.66a2.63 2.63 0 00-1.367-2.434 3.74 3.74 0 00-3.576.128 3.032 3.032 0 00-1.152 2.373c-.067 1.093-.052 3.255-.067 3.255zm-61.965.064v-3.24a6.868 6.868 0 011.219-3.843 5.702 5.702 0 013.206-2.26 8.541 8.541 0 013.65-.196c2.712.384 4.677 1.981 5.172 4.965.372 2.732.419 5.5.14 8.243a6.05 6.05 0 01-2.822 4.913 7.176 7.176 0 01-4.544.995 6.559 6.559 0 01-3.332-1.085 5.513 5.513 0 01-2.453-3.707 35.245 35.245 0 01-.236-4.785zm9.855-.045v-2.441a9.187 9.187 0 00-.236-1.756 2.325 2.325 0 00-1.633-1.778 5.281 5.281 0 00-2.083-.12c-1.214.217-2.127 1.248-2.217 2.501-.044 2.373-.066 4.754 0 7.128.028 1.355 1.007 2.493 2.32 2.697 1.374.219 2.859-.09 3.473-1.725a7.065 7.065 0 00.347-1.967c.074-.844.029-1.695.029-2.539zm106.738.058V32a6.483 6.483 0 01-2.393 5.018 6.033 6.033 0 01-2.778 1.213c-1 .182-2.023.182-3.022 0-2.017-.285-3.748-1.61-4.581-3.504a8.885 8.885 0 01-.739-3.707v-4.747a8.6 8.6 0 01.843-3.956 5.496 5.496 0 013.804-2.923 8.458 8.458 0 015.246.294 5.494 5.494 0 013.125 3.255 9.607 9.607 0 01.54 3.594v2.208l-.045.007zm-3.693.002v-3.42a2.594 2.594 0 00-1.33-2.359 3.39 3.39 0 00-1.522-.414 3.196 3.196 0 00-2.128.55 2.505 2.505 0 00-1.049 1.899c-.066 2.463 0 4.935 0 7.406.008.11.03.22.067.324a2.731 2.731 0 002.135 2.193c1.943.4 3.694-.505 3.849-2.848.059-1.13-.022-2.246-.022-3.36v.03zm-38.353-.024V21.02a1.96 1.96 0 011.344-1.816 1.792 1.792 0 012.158.995c.115.29.17.6.162.912v5.357c.023.176.067.348.133.512a1.7 1.7 0 00.466-.308c1.536-2.09 3.066-4.185 4.588-6.285.554-.753 1.174-1.363 2.216-1.19.899.207 1.508 1.06 1.426 1.997a2.066 2.066 0 01-.384.753 665.708 665.708 0 01-4.632 6.254c-.289.384-.37.648-.045 1.085a522.368 522.368 0 014.433 6.028c.263.304.47.654.613 1.032.303 1.085-.968 2.26-2.039 2.05a2.328 2.328 0 01-1.404-.98c-1.61-2.19-3.218-4.38-4.824-6.57a1.653 1.653 0 00-.421-.302 1.88 1.88 0 00-.118.468v5.5c.074.925-.576 1.747-1.478 1.869a1.757 1.757 0 01-1.973-.995 3.313 3.313 0 01-.221-1.123c-.008-2.554 0-5.04 0-7.534zm44.816.233v-7.331a2.024 2.024 0 011.197-2.042c.34-.138.704-.207 1.071-.203 1.581 0 3.169-.068 4.743.06 2.335.188 4.337 1.273 5.172 3.767a6.743 6.743 0 01-.687 6.028 5.553 5.553 0 01-3.31 2.208 14.698 14.698 0 01-3.842.279c-.695 0-.702 0-.702.7v4.137c-.021.77-.52 1.44-1.241 1.665a1.825 1.825 0 01-1.716-.301 1.906 1.906 0 01-.715-1.62v-6.533c.02-.261.03-.532.03-.814zm3.642-3.436v2.396c0 .331.133.505.465.482a28.774 28.774 0 003.022-.234 2.348 2.348 0 001.182-.798 3.063 3.063 0 00.436-2.766 2.016 2.016 0 00-1.589-1.65c-.99-.18-2.009-.173-3.014-.256-.384 0-.517.143-.51.527.015.761.008 1.53.008 2.299zM198.26 30v6.487a1.74 1.74 0 01-1.204 1.786 1.78 1.78 0 01-1.645-.236 1.858 1.858 0 01-.764-1.504V23.505c0-.806 0-.806-.798-.814-.798-.007-1.537 0-2.305-.037a1.56 1.56 0 01-1.104-.6 1.622 1.622 0 01-.322-1.231 1.903 1.903 0 011.352-1.387 4.3 4.3 0 01.687-.06h8.667a2.004 2.004 0 011.477.46c.494.358.713.995.547 1.59a1.628 1.628 0 01-1.426 1.228c-.842.067-1.692 0-2.534.045-.554 0-.606.052-.606.625V30h-.022zm-76.903-15.934c.31.174.628.34.931.535.45.287.879.61 1.344.867a1.296 1.296 0 001.419-.241c.391-.264.739-.595 1.138-.867a1.115 1.115 0 011.529.189 1.23 1.23 0 01.059 1.446 3.851 3.851 0 01-2.955 1.937 4.373 4.373 0 01-3.694-1.063 2.164 2.164 0 01-.857-1.507 1.206 1.206 0 011.086-1.296z" fill="#000"/><path fill-rule="evenodd" clip-rule="evenodd" d="M58.41 27.496C58.428 12.416 46.506.14 31.702 0H18.82a12.457 12.457 0 00-8.885 3.763 12.93 12.93 0 00-3.67 9.06v29.354a12.93 12.93 0 003.67 9.06A12.457 12.457 0 0018.82 55h12.873c14.805-.141 26.727-12.416 26.709-27.496" fill="url(#paint0_linear)"/><path fill-rule="evenodd" clip-rule="evenodd" d="M27.95 42.037a1.492 1.492 0 01-1.45-1.31l-2.508-18.33-1.376 6.402c-.543 2.491-2.706 4.267-5.211 4.28H.94a.95.95 0 01-.94-.958.95.95 0 01.94-.958h16.473c1.625-.01 3.026-1.163 3.38-2.778l1.742-8.096c.17-.75.839-1.27 1.593-1.24.755.03 1.382.604 1.493 1.365l2.378 17.542 4.144-24.393a1.498 1.498 0 011.49-1.278 1.5 1.5 0 011.474 1.31l2.199 14.815c.24 1.581 1.571 2.752 3.143 2.762h27.245c.52 0 .94.428.94.958a.95.95 0 01-.94.958H40.457c-2.495-.02-4.608-1.877-4.992-4.388l-1.864-12.558-4.194 24.634a1.49 1.49 0 01-1.465 1.261" fill="#2A3D44"/><defs><linearGradient id="paint0_linear" x1="58.41" y1="55" x2="58.41" y2="0" gradientUnits="userSpaceOnUse"><stop stop-color="#B3EFE8"/><stop offset="1" stop-color="#E8EDCF"/></linearGradient></defs></svg>
